img/soc-icons/twitter.svg

<svg width="48" height="48" viewBox="0 0 48 48" fill="none" xmlns="http://www.w3.org/2000/svg">
<circle cx="24" cy="24" r="22" fill="#1DA1F2"/>
<path d="M24.001 0C10.7456 0 0 10.7476 0 24.001C0 37.2563 10.7456 48 24.001 48C37.2563 48 48 37.2563 48 24.001C48 10.7476 37.2554 0 24.001 0ZM36.0906 19.1618C36.1033 19.4211 36.1082 19.6813 36.1082 19.9444C36.1082 27.9376 30.0244 37.153 18.8996 37.153C15.4844 37.153 12.3041 36.152 9.62768 34.4366C10.1014 34.4922 10.5819 34.5205 11.0702 34.5205C13.9045 34.5205 16.5127 33.5536 18.5819 31.9318C15.9357 31.8821 13.7027 30.1326 12.9327 27.73C13.3012 27.8021 13.6803 27.8382 14.0702 27.8382C14.6218 27.8382 15.1559 27.7661 15.6637 27.6267C12.8957 27.0711 10.8109 24.6248 10.8109 21.6969C10.8109 21.6706 10.8109 21.6452 10.8119 21.6189C11.6267 22.0721 12.5595 22.3441 13.5517 22.3762C11.9279 21.2895 10.8606 19.4405 10.8606 17.3411C10.8606 16.2329 11.1589 15.193 11.6793 14.3002C14.6628 17.9591 19.1199 20.3674 24.1472 20.6189C24.0439 20.1774 23.9903 19.7144 23.9903 19.2407C23.9903 15.9016 26.6979 13.193 30.039 13.193C31.7788 13.193 33.3499 13.9279 34.4532 15.1023C35.8314 14.8324 37.1257 14.3275 38.2943 13.6345C37.8411 15.0478 36.883 16.2329 35.6335 16.9805C36.8587 16.8343 38.0244 16.5088 39.1082 16.0283C38.2992 17.2437 37.2729 18.309 36.0906 19.1618Z" fill="white"/>
</svg>

<svg width="48" height="48" fill="none" xmlns="http://www.w3.org/2000/svg">
    <circle cx="24" cy="24" r="22" fill="#1DA1F2"/>
    <path d="M24.001 0C10.746 0 0 10.748 0 24.001 0 37.256 10.746 48 24.001 48S48 37.256 48 24.001C48 10.748 37.255 0 24.001 0Zm12.09 19.162c.012.26.017.52.017.782 0 7.994-6.084 17.209-17.208 17.209a17.126 17.126 0 0 1-9.272-2.716c.473.055.954.084 1.442.084 2.835 0 5.443-.967 7.512-2.59a6.057 6.057 0 0 1-5.65-4.201 5.91 5.91 0 0 0 1.138.108 6.01 6.01 0 0 0 1.594-.211 6.053 6.053 0 0 1-4.853-5.93v-.078a6.027 6.027 0 0 0 2.74.757 6.047 6.047 0 0 1-2.69-5.035c0-1.108.298-2.148.818-3.04a17.172 17.172 0 0 0 12.468 6.318 6.048 6.048 0 0 1 5.892-7.426c1.74 0 3.31.735 4.414 1.91a12.078 12.078 0 0 0 3.841-1.469 6.066 6.066 0 0 1-2.66 3.346 12.092 12.092 0 0 0 3.474-.952 12.22 12.22 0 0 1-3.017 3.134Z" fill="#fff"/>
</svg>
